X:1759
T:The Glories Of Spring
M:C|
L:1/8
N:"collected by F. O'Neill"
B:O'Neill's 1759
R:Hornpipe
Z:"Transcribed by Bob Safranek, rjs@gsp.org"
K:Gm
   G,>A, | B,4 A,4 | G,>A,B,>C D>GG>A | B>GA>^F G>=FD>E | {G}F>EF>D C>A,A,>C |
(3B,B,B, B,>B, (3A,A,A, A,>A,|G,>A,B,>C D>GG>A |B>GA>^F G>=FD>E |{G}F>DC>A, G,2:|
|: D>E | F>GF>D B,>DF>A | B2 c2 d2 B>c | d>^cd>e d>BG>A | B>GA>^F G>=FD>E |
         F>GF>D B,>DF>A | B2 c2 d2 B>c | d>^cd>e d>BG>A | B>GA>^F G2     :|


